X:1
T:Chandos, CM
T:Chandos, CM
T:George Frederick Handel, 1718
T:Public Domain Courtesy of the Cyber Hymnal™
C:George Frederick Handel, 1718
Z:Public Domain
Z:Courtesy of the Cyber Hymnal™
%%score ( 1 2 ) ( 3 4 )
L:1/8
Q:1/4=108
M:4/4
K:E
V:1 treble 
V:2 treble 
V:3 bass 
V:4 bass 
V:1
 E2 | G3 z A [EB]2 [EB]2 | [Ec]2 [Ec]2 [EB]2 [EB]2 | [Ec]2 [EB]2 [Ad]2 [Ge]2 | [DF]6 [FB]2 | %5
 [Gc]2 [Gc]2 B3 z c | [EA]2 [DA]2 [EG]2 [DF]2 | [EB]2 E2 (GF) (ED) | [B,E]6 |] %9
V:2
 E2 | E2 D2 x5 | x8 | x8 | x8 | x4 F2 E2 x | x8 | x2 E2 C2 B,2 | x6 |] %9
V:3
 [E,G,]2 | [E,B,]2 [F,B,]2 [G,B,]2 [E,G,]2 x | [A,C]2 [A,,A,]2 [E,G,]2 [G,B,]2 | %3
 A,2 [G,B,]2 [F,C]2 [E,C]2 | [B,,B,]6 [B,D]2 | [B,E]2 [A,C]2 [A,D]2 [G,B,]2 x | %6
 [F,C]2 [F,A,]2 [E,B,]2 [A,,B,]2 | [G,,B,]2 [C,G,]2 (B,A,) (G,F,) | [E,G,]6 |] %9
V:4
 x2 | x9 | x8 | A,2 x6 | x8 | x9 | x8 | x4 A,,2 B,,2 | x6 |] %9

